X: 3578
T: Bigg Market Lasses
R: reel
M: 4/4
K: Adorian
cB|A e e^de=d cB|A e e^de2 cB|G d d^cd=c BA|G d d^cd2 =cB|
A e e^de=d cB|A e e^de2 ef|(3gfe) (3fed) edBA|B ee^de2:|
cB|A e e/^d/e A e e/^d/e|A e e f g2 fe|G d d/^c/d G d d/^c/d|G d d e =f2 ed|
A e e/^d/e A e e/^d/e|A e e f g2 fg|(3agf) (3gfe) fe dB|A ee^de2:|

